X:284
T:Sheehan's
T:The black eyed sailor
T:Wellington's
R:Reel
O:Ireland
B:Ceol Rince 3 n110
B:O'Neill's 1475
B:O'Neill's 1213
S:O'Neill's 1213
Z:Transcription:Bob Safranek, arr.,chords:Mike Long
M:C|
L:1/8
K:G
"G"G2BG DGBG|"D"ABcA "G"BGGB|"Am"A^GAB cBcA|"C"EAAG "D"FDEF|\
"G"G2BG DGBd|
"C"cBAB "(D)"cdef|"G"gedB "C"c2Bc|"D"dBcA "G"BGG2:|\
|:"G"g2bg dgbg|"G"gbag "D"fdde|
"F"=f2af cfaf|"F"=fagf  "C"ece^f|\
"G"g2bg dgbg|"G"gbag "D"fdef|"G"gedB "C"c2Bc|"D"dBcA "G"BGG2:|
